assets/images/icons/calendar.svg

<svg width="16" height="16" viewBox="0 0 16 16" fill="none" xmlns="http://www.w3.org/2000/svg">
<path d="M4.78585 9.18092C5.22637 9.18092 5.58349 8.82844 5.58349 8.39363C5.58349 7.95883 5.22637 7.60635 4.78585 7.60635C4.34532 7.60635 3.98821 7.95883 3.98821 8.39363C3.98821 8.82844 4.34532 9.18092 4.78585 9.18092Z" fill="#79655E"/>
<path d="M8.77405 8.39363C8.77405 8.82844 8.41694 9.18092 7.97641 9.18092C7.53589 9.18092 7.17877 8.82844 7.17877 8.39363C7.17877 7.95883 7.53589 7.60635 7.97641 7.60635C8.41694 7.60635 8.77405 7.95883 8.77405 8.39363Z" fill="#79655E"/>
<path d="M11.167 9.18092C11.6075 9.18092 11.9646 8.82844 11.9646 8.39363C11.9646 7.95883 11.6075 7.60635 11.167 7.60635C10.7264 7.60635 10.3693 7.95883 10.3693 8.39363C10.3693 8.82844 10.7264 9.18092 11.167 9.18092Z" fill="#79655E"/>
<path d="M5.58349 11.5428C5.58349 11.9776 5.22637 12.33 4.78585 12.33C4.34532 12.33 3.98821 11.9776 3.98821 11.5428C3.98821 11.108 4.34532 10.7555 4.78585 10.7555C5.22637 10.7555 5.58349 11.108 5.58349 11.5428Z" fill="#79655E"/>
<path d="M7.97641 12.33C8.41694 12.33 8.77405 11.9776 8.77405 11.5428C8.77405 11.108 8.41694 10.7555 7.97641 10.7555C7.53589 10.7555 7.17877 11.108 7.17877 11.5428C7.17877 11.9776 7.53589 12.33 7.97641 12.33Z" fill="#79655E"/>
<path fill-rule="evenodd" clip-rule="evenodd" d="M4.78585 1.3081C4.78585 0.873291 4.42873 0.520813 3.98821 0.520813C3.54768 0.520813 3.19056 0.873291 3.19056 1.3081H1.59528C0.714232 1.3081 0 2.01305 0 2.88266V13.9046C0 14.7742 0.714233 15.4792 1.59528 15.4792H14.3575C15.2386 15.4792 15.9528 14.7742 15.9528 13.9046V2.88266C15.9528 2.01305 15.2386 1.3081 14.3575 1.3081H12.7623C12.7623 0.873291 12.4051 0.520813 11.9646 0.520813C11.5241 0.520813 11.167 0.873291 11.167 1.3081H4.78585ZM1.59528 4.45722V2.88266H14.3575V4.45722H1.59528ZM1.59528 6.03179V13.9046H9.70857L14.3575 9.31601V6.03179H1.59528ZM14.3575 11.5428L11.9646 13.9046H14.3575V11.5428Z" fill="#79655E"/>
</svg>

<svg width="16" height="16" fill="none" xmlns="http://www.w3.org/2000/svg"><path d="M4.786 9.18c.44 0 .797-.352.797-.786a.793.793 0 00-.797-.788.793.793 0 00-.798.788c0 .434.357.787.798.787zm3.988-.786a.793.793 0 01-.798.787.793.793 0 01-.797-.787c0-.435.357-.788.797-.788.44 0 .798.353.798.788zm2.393.786c.44 0 .798-.352.798-.786a.792.792 0 00-.798-.788.793.793 0 00-.798.788c0 .434.357.787.798.787zm-5.584 2.363a.792.792 0 01-.797.787.792.792 0 01-.798-.787c0-.435.357-.787.798-.787.44 0 .797.352.797.787zm2.393.787c.44 0 .798-.352.798-.787a.793.793 0 00-.798-.787.793.793 0 00-.797.787c0 .435.357.787.797.787z" fill="#79655E"/><path fill-rule="evenodd" clip-rule="evenodd" d="M4.786 1.308a.793.793 0 00-.798-.787.793.793 0 00-.797.787H1.595C.715 1.308 0 2.013 0 2.883v11.022c0 .87.714 1.574 1.595 1.574h12.762c.882 0 1.596-.705 1.596-1.574V2.883c0-.87-.714-1.575-1.595-1.575h-1.596a.793.793 0 00-.797-.787.792.792 0 00-.798.787H4.786zm-3.19 3.15V2.882h12.761v1.574H1.595zm0 1.574v7.873h8.113l4.649-4.589V6.032H1.595zm12.761 5.51l-2.392 2.363h2.393v-2.362z" fill="#79655E"/></svg>
